www/assets/icons/local_atm.svg

<svg xmlns="http://www.w3.org/2000/svg" width="24" height="24" viewBox="0 0 24 24" fill='currentColor'><path d="M11 17h2v-1h1c.55 0 1-.45 1-1v-3c0-.55-.45-1-1-1h-3v-1h4V8h-2V7h-2v1h-1c-.55 0-1 .45-1 1v3c0 .55.45 1 1 1h3v1H9v2h2zm9-13H4c-1.11 0-1.99.89-1.99 2L2 18c0 1.11.89 2 2 2h16c1.11 0 2-.89 2-2V6c0-1.11-.89-2-2-2m0 14H4V6h16z"/></svg>

<svg width="24" height="24" viewBox="0 0 24 24" xmlns="http://www.w3.org/2000/svg" fill='currentColor'><path d="M11 17H13V16H14C14.55 16 15 15.55 15 15V12C15 11.45 14.55 11 14 11H11V10H15V8H13V7H11V8H10C9.45 8 9 8.45 9 9V12C9 12.55 9.45 13 10 13H13V14H9V16H11V17ZM20 4H4C2.89 4 2.01 4.89 2.01 6L2 18C2 19.11 2.89 20 4 20H20C21.11 20 22 19.11 22 18V6C22 4.89 21.11 4 20 4ZM20 18H4V6H20V18Z"/></svg>
